src/smileys-emotion/face-negative/1F92C.svg

<svg id="emoji" viewBox="0 0 72 72" xmlns="http://www.w3.org/2000/svg">
  <g id="grid">
    <path fill="#B3B3B3" d="M68,4v64H4V4H68 M72,0H0v72h72V0z"/>
    <path fill="none" stroke="#00A5FF" stroke-miterlimit="10" stroke-width="0.1" d="M12.923,10.9583h46.1539 c1.0621,0,1.9231,0.861,1.9231,1.9231v0v46.1538c0,1.0621-0.861,1.9231-1.9231,1.9231H12.9231 c-1.0621,0-1.9231-0.861-1.9231-1.9231l0,0V12.8813C11,11.8193,11.861,10.9583,12.923,10.9583L12.923,10.9583z"/>
    <path fill="none" stroke="#00A5FF" stroke-miterlimit="10" stroke-width="0.1" d="M18.2537,4h35.4926C54.991,4,56,5.009,56,6.2537 v59.4926C56,66.991,54.991,68,53.7463,68H18.2537C17.009,68,16,66.991,16,65.7463V6.2537C16,5.009,17.009,4,18.2537,4z"/>
    <path fill="none" stroke="#00A5FF" stroke-miterlimit="10" stroke-width="0.1" d="M68,18.2537v35.4926 C68,54.991,66.991,56,65.7463,56H6.2537C5.009,56,4,54.991,4,53.7463V18.2537C4,17.009,5.009,16,6.2537,16h59.4926 C66.991,16,68,17.009,68,18.2537z"/>
    <circle cx="36" cy="36" r="29" fill="none" stroke="#00A5FF" stroke-miterlimit="10" stroke-width="0.1"/>
  </g>
  <g id="color">
    <path fill="#FCEA2B" d="M36,13c-12.6823,0-23,10.3177-23,23c0,12.6822,10.3177,23,23,23c12.6822,0,23-10.3177,23-23 C59,23.3177,48.6822,13,36,13z"/>
    <path fill="#FFFFFF" d="M40.9453,46.6999h-9.8906c-1.28,0-2.3272-1.4849-2.3272-3.2999l0,0c0-1.8149,1.0472-3.2999,2.3272-3.2999 h9.8906c1.28,0,2.3272,1.4849,2.3272,3.2999l0,0C43.2725,45.2149,42.2253,46.6999,40.9453,46.6999z"/>
  </g>
  <g id="hair"/>
  <g id="skin"/>
  <g id="skin-shadow"/>
  <g id="line">
    <circle cx="36" cy="36" r="23" fill="none" stroke="#000000" stroke-miterlimit="10" stroke-width="2"/>
    <path d="M30,31.9252c0,1.6567-1.3448,3-3,3c-1.6553,0-3-1.3433-3-3c0-1.6552,1.3447-3,3-3C28.6552,28.9252,30,30.2699,30,31.9252"/>
    <path d="M48,31.9252c0,1.6567-1.3447,3-3,3s-3-1.3433-3-3c0-1.6552,1.3447-3,3-3S48,30.2699,48,31.9252"/>
    <path fill="none" stroke="#000000" stroke-miterlimit="2" stroke-width="2" d="M40.9453,46.6999h-9.8906 c-1.28,0-2.3272-1.4849-2.3272-3.2999l0,0c0-1.8149,1.0472-3.2999,2.3272-3.2999h9.8906c1.28,0,2.3272,1.4849,2.3272,3.2999l0,0 C43.2725,45.2149,42.2253,46.6999,40.9453,46.6999z"/>
    <line x1="23" x2="30" y1="23.1126" y2="27.1126" fill="none" stroke="#000000" stroke-linecap="round" stroke-linejoin="round" stroke-miterlimit="10" stroke-width="2"/>
    <line x1="49" x2="42" y1="23.1126" y2="27.1126" fill="none" stroke="#000000" stroke-linecap="round" stroke-linejoin="round" stroke-miterlimit="10" stroke-width="2"/>
    <line x1="55.2955" x2="55.2955" y1="8.8292" y2="13.1531" fill="none" stroke="#000000" stroke-linecap="round" stroke-linejoin="round" stroke-miterlimit="10" stroke-width="2"/>
    <circle cx="55.2955" cy="15.8292" r="1"/>
    <line x1="62.3172" x2="61.2526" y1="16.8292" y2="23.8292" fill="none" stroke="#000000" stroke-linecap="round" stroke-linejoin="round" stroke-miterlimit="10" stroke-width="2"/>
    <line x1="65.433" x2="64.3684" y1="16.8292" y2="23.8292" fill="none" stroke="#000000" stroke-linecap="round" stroke-linejoin="round" stroke-miterlimit="10" stroke-width="2"/>
    <line x1="60.0353" x2="67.1158" y1="18.7792" y2="18.7722" fill="none" stroke="#000000" stroke-linecap="round" stroke-linejoin="round" stroke-miterlimit="10" stroke-width="2"/>
    <line x1="59.5698" x2="66.6503" y1="21.8601" y2="21.853" fill="none" stroke="#000000" stroke-linecap="round" stroke-linejoin="round" stroke-miterlimit="10" stroke-width="2"/>
  </g>
</svg>

<svg id="emoji" viewBox="0 0 72 72" xmlns="http://www.w3.org/2000/svg">
  <g id="grid">
    <path fill="#b3b3b3" d="M68,4V68H4V4H68m4-4H0V72H72V0Z"/>
    <path fill="none" stroke="#00a5ff" stroke-miterlimit="10" stroke-width="0.1" d="M12.9231,10.9583H59.077A1.923,1.923,0,0,1,61,12.8813V59.0352a1.9231,1.9231,0,0,1-1.9231,1.9231H12.9231A1.9231,1.9231,0,0,1,11,59.0352V12.8814a1.9231,1.9231,0,0,1,1.9231-1.9231Z"/>
    <rect x="16" y="4" rx="2.2537" width="40" height="64" fill="none" stroke="#00a5ff" stroke-miterlimit="10" stroke-width="0.1"/>
    <rect x="16" y="4" rx="2.2537" width="40" height="64" transform="rotate(90 36 36)" fill="none" stroke="#00a5ff" stroke-miterlimit="10" stroke-width="0.1"/>
    <circle cx="36" cy="36" r="29" fill="none" stroke="#00a5ff" stroke-miterlimit="10" stroke-width="0.1"/>
  </g>
  <g id="line-supplement">
    <line x1="44.96" x2="44.96" y1="44.3741" y2="48.8453" fill="none" stroke="#000" stroke-linecap="round" stroke-linejoin="round" stroke-width="2"/>
    <circle cx="44.9259" cy="51.6467" r="1"/>
    <line x1="28.1472" x2="27.0463" y1="44.0809" y2="51.3195" fill="none" stroke="#000" stroke-linecap="round" stroke-linejoin="round" stroke-width="2"/>
    <line x1="31.3692" x2="30.2683" y1="44.0809" y2="51.3195" fill="none" stroke="#000" stroke-linecap="round" stroke-linejoin="round" stroke-width="2"/>
    <line x1="25.7875" x2="33.1094" y1="46.0973" y2="46.0901" fill="none" stroke="#000" stroke-linecap="round" stroke-linejoin="round" stroke-width="2"/>
    <line x1="25.3062" x2="32.628" y1="49.2832" y2="49.2759" fill="none" stroke="#000" stroke-linecap="round" stroke-linejoin="round" stroke-width="2"/>
    <path fill="none" stroke="#000" stroke-linecap="round" stroke-linejoin="round" stroke-width="2" d="M40.2178,45.7188a1.5322,1.5322,0,0,0-1.4173-.8272,1.5714,1.5714,0,0,0-1.6771,1.3525s-.2434,1.3691,1.8124,1.4336c0,0,1.4607.2435,1.4607,1.4607,0,1.3337-1.4337,1.38-1.4337,1.38s-1.3707.1039-1.752-.732"/>
    <line x1="38.8054" x2="38.8054" y1="44.6395" y2="43.6338" fill="none" stroke="#000" stroke-linecap="round" stroke-linejoin="round" stroke-width="2"/>
    <line x1="38.8054" x2="38.8054" y1="51.7782" y2="50.7725" fill="none" stroke="#000" stroke-linecap="round" stroke-linejoin="round" stroke-width="2"/>
  </g>
  <g id="color">
    <path fill="#ea5a47" d="M36,13A23,23,0,1,0,59,36,23.026,23.026,0,0,0,36,13Z"/>
    <rect x="19.5181" y="41.076" rx="4.0768" width="32.2641" height="13.5745" fill="#3f3f3f"/>
    <line x1="44.96" x2="44.96" y1="44.3741" y2="48.8453" fill="none" stroke="#fff" stroke-linecap="round" stroke-linejoin="round" stroke-width="2"/>
    <circle cx="44.9259" cy="51.6467" r="1" fill="#fff"/>
    <line x1="28.1472" x2="27.0463" y1="44.0809" y2="51.3195" fill="none" stroke="#fff" stroke-linecap="round" stroke-linejoin="round" stroke-width="2"/>
    <line x1="31.3692" x2="30.2683" y1="44.0809" y2="51.3195" fill="none" stroke="#fff" stroke-linecap="round" stroke-linejoin="round" stroke-width="2"/>
    <line x1="25.7875" x2="33.1094" y1="46.0973" y2="46.0901" fill="none" stroke="#fff" stroke-linecap="round" stroke-linejoin="round" stroke-width="2"/>
    <line x1="25.3062" x2="32.628" y1="49.2832" y2="49.2759" fill="none" stroke="#fff" stroke-linecap="round" stroke-linejoin="round" stroke-width="2"/>
    <path fill="none" stroke="#fff" stroke-linecap="round" stroke-linejoin="round" stroke-width="2" d="M40.2178,45.7188a1.5322,1.5322,0,0,0-1.4173-.8272,1.5714,1.5714,0,0,0-1.6771,1.3525s-.2434,1.3691,1.8124,1.4336c0,0,1.4607.2435,1.4607,1.4607,0,1.3337-1.4337,1.38-1.4337,1.38s-1.3707.1039-1.752-.732"/>
    <line x1="38.8054" x2="38.8054" y1="44.6395" y2="43.6338" fill="none" stroke="#fff" stroke-linecap="round" stroke-linejoin="round" stroke-width="2"/>
    <line x1="38.8054" x2="38.8054" y1="51.7782" y2="50.7725" fill="none" stroke="#fff" stroke-linecap="round" stroke-linejoin="round" stroke-width="2"/>
  </g>
  <g id="line">
    <circle cx="36" cy="36" r="23" fill="none" stroke="#000" stroke-miterlimit="10" stroke-width="2"/>
    <path d="M30,33.9252a3,3,0,1,1-3-3,3.0012,3.0012,0,0,1,3,3"/>
    <path d="M48,33.9252a3,3,0,1,1-3-3,3.0011,3.0011,0,0,1,3,3"/>
    <line x1="23" x2="30" y1="25.1126" y2="29.1126" fill="none" stroke="#000" stroke-linecap="round" stroke-linejoin="round" stroke-width="2"/>
    <line x1="49" x2="42" y1="25.1126" y2="29.1126" fill="none" stroke="#000" stroke-linecap="round" stroke-linejoin="round" stroke-width="2"/>
    <rect x="19.868" y="41.076" rx="4.0768" width="32.2641" height="13.5745" fill="none" stroke="#000" stroke-miterlimit="2" stroke-width="2"/>
  </g>
</svg>
